X: 2
T: Zaplanski \vCa\vcak
Z: John Chambers <jc@trillian.mit.edu> http://trillian.mit.edu/~jc/music/
M: 2/4
L: 1/16
K: AMix
|::: "A"{E}~A2E ~c2E | ~d2E ~c2E | ~A2E ~c2E |1,3 "E7"~B2E ~e2E :|2,4 "E7"~B2E ~B2E :|
|::: "E"^G2A ~B2A | ^G2A ~B2A | "B7"dcB A^GA |1,3 "E"B2E ~B2E :|2,4 "E"~B3- "fine"B3 :|
|: "Em"{A}B4- | B4- | B4- | B4 :|
P:
|::: "Em"^ABc BAG | ABc BAG | ABc BAG | ~B3 G3 :::|
|::: "F#"^ABc BAG | ~F2C ~^A2C | "Em"^ABc BAG | "F#"~F2C ~F3 :::|
